src/svg/credit-card.svg

<svg version="1.2" baseProfile="tiny" xmlns="http://www.w3.org/2000/svg" width="24" height="24" viewBox="0 0 24 24"><g><path d="M17 7h-11c-1.654 0-3 1.346-3 3v7c0 1.654 1.346 3 3 3h11c1.654 0 3-1.346 3-3v-7c0-1.654-1.346-3-3-3zm1 10c0 .552-.448 1-1 1h-11c-.552 0-1-.448-1-1v-4h13v4zm0-6h-13v-1c0-.552.448-1 1-1h11c.552 0 1 .448 1 1v1zM14 16h2c.276 0 .5-.224.5-.5s-.224-.5-.5-.5h-2c-.276 0-.5.224-.5.5s.224.5.5.5z"/></g></svg>

<?xml version="1.0" encoding="iso-8859-1"?>
<!-- Generator: Adobe Illustrator 16.2.1, SVG Export Plug-In . SVG Version: 6.00 Build 0)  -->
<svg version="1.2" baseProfile="tiny" xmlns="http://www.w3.org/2000/svg" xmlns:xlink="http://www.w3.org/1999/xlink" x="0px"
	 y="0px" width="24px" height="24px" viewBox="0 0 24 24" xml:space="preserve">
<g id="Layer_1">
	<path d="M17,7H6c-1.654,0-3,1.346-3,3v7c0,1.654,1.346,3,3,3h11c1.654,0,3-1.346,3-3v-7C20,8.346,18.654,7,17,7z M18,17
		c0,0.552-0.448,1-1,1H6c-0.552,0-1-0.448-1-1v-4h13V17z M18,11H5v-1c0-0.552,0.448-1,1-1h11c0.552,0,1,0.448,1,1V11z"/>
	<path d="M14,16h2c0.276,0,0.5-0.224,0.5-0.5S16.276,15,16,15h-2c-0.276,0-0.5,0.224-0.5,0.5S13.724,16,14,16z"/>
</g>
<g id="nyt_x5F_exporter_x5F_info" display="none">
</g>
</svg>
